symbols/web/score/materialsymbolsrounded/score_fill1_20px.svg

<svg xmlns="http://www.w3.org/2000/svg" height="20" width="20"><path d="M4.25 17.5q-.729 0-1.24-.51-.51-.511-.51-1.24V4.25q0-.729.51-1.24.511-.51 1.24-.51h11.5q.729 0 1.24.51.51.511.51 1.24v11.5q0 .729-.51 1.24-.511.51-1.24.51Zm6.396-7.479q.271 0 .448-.177t.177-.448V5.667q0-.271-.177-.448t-.448-.177q-.271 0-.458.177-.188.177-.188.448v3.729q0 .271.188.448.187.177.458.177Zm2.479 0q.354 0 .531-.313.177-.312-.01-.625L12.708 7.5l.938-1.521q.187-.312.01-.625-.177-.312-.531-.312-.167 0-.313.073-.145.073-.229.218L11.271 7.5l1.312 2.229q.084.146.229.219.146.073.313.073Zm-6.375 0h1.833q.271 0 .448-.188.177-.187.177-.458t-.177-.448q-.177-.177-.448-.177H7.146v-.583h1.187q.355 0 .615-.261.26-.26.26-.614V5.917q0-.355-.26-.615t-.615-.26H6.5q-.271 0-.448.177t-.177.448q0 .271.187.458.188.187.459.187h1.396v.584H6.75q-.354 0-.615.26-.26.261-.26.615v1.375q0 .354.26.614.261.261.615.261Zm4.062 5.937q.167 0 .334-.073.166-.073.292-.197l4.062-4.063q.167-.167.208-.302.042-.135.042-.302 0-.583-.531-.813-.531-.229-.948.188l-3.438 3.458-2.666-2.666q-.125-.126-.292-.198-.167-.073-.333-.073-.167 0-.334.073-.166.072-.291.198L4.5 13.604q-.125.125-.188.281-.062.157-.062.323 0 .584.542.813.541.229.958-.188l1.792-1.791 2.646 2.646q.124.124.291.197.167.073.333.073Z"/></svg>

<svg xmlns="http://www.w3.org/2000/svg" height="20" width="20"><path d="M4.25 17.5Q3.521 17.5 3.01 16.99Q2.5 16.479 2.5 15.75V4.25Q2.5 3.521 3.01 3.01Q3.521 2.5 4.25 2.5H15.75Q16.479 2.5 16.99 3.01Q17.5 3.521 17.5 4.25V15.75Q17.5 16.479 16.99 16.99Q16.479 17.5 15.75 17.5ZM10.646 10.021Q10.917 10.021 11.094 9.844Q11.271 9.667 11.271 9.396V5.667Q11.271 5.396 11.094 5.219Q10.917 5.042 10.646 5.042Q10.375 5.042 10.188 5.219Q10 5.396 10 5.667V9.396Q10 9.667 10.188 9.844Q10.375 10.021 10.646 10.021ZM13.125 10.021Q13.479 10.021 13.656 9.708Q13.833 9.396 13.646 9.083L12.708 7.5L13.646 5.979Q13.833 5.667 13.656 5.354Q13.479 5.042 13.125 5.042Q12.958 5.042 12.812 5.115Q12.667 5.188 12.583 5.333L11.271 7.5L12.583 9.729Q12.667 9.875 12.812 9.948Q12.958 10.021 13.125 10.021ZM6.75 10.021H8.583Q8.854 10.021 9.031 9.833Q9.208 9.646 9.208 9.375Q9.208 9.104 9.031 8.927Q8.854 8.75 8.583 8.75H7.146V8.167H8.333Q8.688 8.167 8.948 7.906Q9.208 7.646 9.208 7.292V5.917Q9.208 5.562 8.948 5.302Q8.688 5.042 8.333 5.042H6.5Q6.229 5.042 6.052 5.219Q5.875 5.396 5.875 5.667Q5.875 5.938 6.062 6.125Q6.25 6.312 6.521 6.312H7.917V6.896H6.75Q6.396 6.896 6.135 7.156Q5.875 7.417 5.875 7.771V9.146Q5.875 9.5 6.135 9.76Q6.396 10.021 6.75 10.021ZM10.812 15.958Q10.979 15.958 11.146 15.885Q11.312 15.812 11.438 15.688L15.5 11.625Q15.667 11.458 15.708 11.323Q15.75 11.188 15.75 11.021Q15.75 10.438 15.219 10.208Q14.688 9.979 14.271 10.396L10.833 13.854L8.167 11.188Q8.042 11.062 7.875 10.99Q7.708 10.917 7.542 10.917Q7.375 10.917 7.208 10.99Q7.042 11.062 6.917 11.188L4.5 13.604Q4.375 13.729 4.312 13.885Q4.25 14.042 4.25 14.208Q4.25 14.792 4.792 15.021Q5.333 15.25 5.75 14.833L7.542 13.042L10.188 15.688Q10.312 15.812 10.479 15.885Q10.646 15.958 10.812 15.958Z"/></svg>
